src/images_karasa_jaga_svg/cmd/32/insertindexesentry.svg

<svg height="32" width="32" xmlns="http://www.w3.org/2000/svg" xmlns:xlink="http://www.w3.org/1999/xlink"><filter id="a"><feGaussianBlur stdDeviation="1.0394514"/></filter><filter id="b"><feGaussianBlur stdDeviation=".50063244"/></filter><radialGradient id="c" cx="102" cy="112.3047" gradientUnits="userSpaceOnUse" r="139.5585"><stop offset="0" stop-color="#00537d"/><stop offset=".0151" stop-color="#186389"/><stop offset=".0558" stop-color="#558ca8"/><stop offset=".0964" stop-color="#89afc3"/><stop offset=".1357" stop-color="#b3ccd8"/><stop offset=".1737" stop-color="#d4e2e9"/><stop offset=".2099" stop-color="#ecf2f5"/><stop offset=".2435" stop-color="#fafcfd"/><stop offset=".2722" stop-color="#fff"/></radialGradient><radialGradient id="d" cx="102" cy="112.3047" gradientTransform="matrix(.9787234 0 0 .9818182 1.361705 1.163636)" gradientUnits="userSpaceOnUse" r="139.55859"><stop offset="0" stop-color="#535557"/><stop offset=".11366145" stop-color="#898a8c"/><stop offset=".20296688" stop-color="#ececec"/><stop offset=".2363" stop-color="#fafafa"/><stop offset=".2722" stop-color="#fff"/><stop offset=".5313" stop-color="#fafafa"/><stop offset=".8449" stop-color="#ebecec"/><stop offset="1" stop-color="#e1e2e3"/></radialGradient><linearGradient id="e" gradientUnits="userSpaceOnUse" x1="88.591797" x2="71.262016" y1="96.592697" y2="79.262917"><stop offset="0" stop-color="#fff"/><stop offset="1" stop-color="#555753"/></linearGradient><filter id="f"><feGaussianBlur stdDeviation=".40750996"/></filter><filter id="g"><feGaussianBlur stdDeviation=".90565481"/></filter><linearGradient id="h" gradientUnits="userSpaceOnUse" x1="85.219681" x2="61.336319" y1="93.219681" y2="69.336319"><stop offset="0"/><stop offset="1" stop-color="#393b38"/></linearGradient><filter id="i"><feGaussianBlur stdDeviation=".4901192"/></filter><linearGradient id="j" gradientUnits="userSpaceOnUse" x1="96" x2="88.000198" y1="104" y2="96.000198"><stop offset="0" stop-color="#888a85"/><stop offset=".0072" stop-color="#8c8e89"/><stop offset=".0673" stop-color="#abaca9"/><stop offset=".1347" stop-color="#c5c6c4"/><stop offset=".2115" stop-color="#dbdbda"/><stop offset=".3012" stop-color="#ebebeb"/><stop offset=".4122" stop-color="#f7f7f6"/><stop offset=".5679" stop-color="#fdfdfd"/><stop offset="1" stop-color="#fff"/></linearGradient><g transform="matrix(.25 0 0 .25 0 .000025)"><path d="m23 9 .04082 112h61.13118c.53 0 1.039-.211 1.414-.586l32.828-32.828c.375-.375.586-.884.586-1.414v-77.172z" filter="url(#a)" opacity=".306849" transform="matrix(1.0416667 0 0 1.0357143 -9.958333 -3.321534)"/><path d="m24.919999 10.931136v108.137934l58.676001-.0001c.53 0 1.039-.211 1.414-.586l31.484-31.765936c.375-.375.586-.884.586-1.414v-74.371898z" filter="url(#b)" opacity=".89589" transform="matrix(1.0416667 0 0 1.0357143 -9.958333 -3.321534)"/><path d="m23 9.9655172.040816 111.0344828h61.131184c.53 0 1.039-.211 1.414-.586l32.828-32.828c.375-.375.586-.884.586-1.414v-76.2064828z" filter="url(#a)" opacity=".306849" transform="matrix(1.0416667 0 0 1.0357143 -9.958333 -3.321534)"/><path d="m16.000002 8v112h61.172c.53 0 1.039-.211 1.414-.586l32.827998-32.828c.375-.375.586-.884.586-1.414v-77.172z" fill="url(#c)"/><path d="m19.678725 10.7c-.539276 0-.978723.440836-.978723.981818l-.7 105.336362c0 .54197.439447.98182.978723.98182h57.913022c.257404 0 .509915-.10407.691957-.28767l32.129526-32.23113c.18303-.1836.28677-.435927.28677-.694145v-73.805237c0-.540982-.43847-.981818-.97872-.981818z" fill="url(#d)"/></g><g fill="#a2a2a2" transform="matrix(.25 0 0 .25 0 1.000026)"><path d="m-104 24h64v4h-64z" transform="scale(-1 1)"/><path d="m-88 36h47.999996v4h-47.999996z" transform="scale(-1 1)"/><path d="m24 24h8v8h-8z"/></g><g fill="#06f" transform="matrix(.25 0 0 .25 0 -5.999974)"><path d="m-104 80h64v4h-64z" transform="scale(-1 1)"/><path d="m-88 92h47.999996v4h-47.999996z" transform="scale(-1 1)"/><path d="m24 80h8v8h-8z"/></g><g fill="#a2a2a2" transform="matrix(.25 0 0 .25 0 8.000026)"><path d="m-104 52h64v4h-64z" transform="scale(-1 1)"/><path d="m-88 64h48.000004v4h-48.000004z" transform="scale(-1 1)"/><path d="m24 52h8v8h-8z"/></g><g transform="matrix(.25 0 0 .25 .000001 .000025)"><path d="m111.414 86.586c.25-.25-26.379-1.586-31.414-1.586-1.654 0-3 1.346-3 3 0 5.035 1.336 31.664 1.586 31.414z" fill="url(#e)" filter="url(#f)" opacity=".1"/><path d="m111.414 86.586c.375-.375-21.97-.586-31.414-.586-1.103 0-2 .897-2 2 0 9.444.211 31.789.586 31.414z" filter="url(#g)" opacity=".2"/><path d="m111.414 86.586c.239-.239-21.607.414-31.414.414-.553 0-1 .447-1 1 0 9.807-.653 31.653-.414 31.414z" fill="url(#h)" filter="url(#i)" opacity=".1"/><path d="m78.586 119.414s11.914-9.914 17.414-15.414 15.414-17.414 15.414-17.414-21.164 1.414-31.414 1.414c0 10.25-1.414 31.414-1.414 31.414z" fill="url(#j)"/></g></svg>

<?xml version="1.0" encoding="UTF-8" standalone="no"?>
<!-- Created with Inkscape (http://www.inkscape.org/) -->

<svg
   xmlns:dc="http://purl.org/dc/elements/1.1/"
   xmlns:cc="http://creativecommons.org/ns#"
   xmlns:rdf="http://www.w3.org/1999/02/22-rdf-syntax-ns#"
   xmlns:svg="http://www.w3.org/2000/svg"
   xmlns="http://www.w3.org/2000/svg"
   xmlns:sodipodi="http://sodipodi.sourceforge.net/DTD/sodipodi-0.dtd"
   xmlns:inkscape="http://www.inkscape.org/namespaces/inkscape"
   width="128"
   height="128"
   id="svg1307"
   sodipodi:version="0.32"
   inkscape:version="0.92.3 (unknown)"
   version="1.0"
   sodipodi:docname="insertindexesentry.svg"
   inkscape:export-filename="/home/rizmut/Dokumen/Rizmut/Github/libreoffice-style-karasa-jaga/build/images_karasa_jaga/cmd/32/insertindexesentry.png"
   inkscape:export-xdpi="24"
   inkscape:export-ydpi="24">
  <defs
     id="defs1309">
    <linearGradient
       id="linearGradient5841">
      <stop
         style="stop-color:black;stop-opacity:0;"
         offset="0"
         id="stop5843" />
      <stop
         id="stop5849"
         offset="0.87912089"
         style="stop-color:black;stop-opacity:0;" />
      <stop
         style="stop-color:black;stop-opacity:1;"
         offset="1"
         id="stop5845" />
    </linearGradient>
    <linearGradient
       id="linearGradient3303">
      <stop
         style="stop-color:#ffffff;stop-opacity:0.68345326;"
         offset="0"
         id="stop3305" />
      <stop
         style="stop-color:#ffffff;stop-opacity:0;"
         offset="1"
         id="stop3307" />
    </linearGradient>
    <linearGradient
       id="linearGradient3273">
      <stop
         style="stop-color:#ffffff;stop-opacity:0.55035973;"
         offset="0"
         id="stop3275" />
      <stop
         style="stop-color:#ffffff;stop-opacity:0;"
         offset="1"
         id="stop3277" />
    </linearGradient>
    <linearGradient
       id="linearGradient3259">
      <stop
         id="stop3261"
         offset="0"
         style="stop-color:#ffffff;stop-opacity:0.55035973;" />
      <stop
         id="stop3263"
         offset="1"
         style="stop-color:#000000;stop-opacity:0;" />
    </linearGradient>
    <linearGradient
       id="linearGradient3225">
      <stop
         style="stop-color:#ffffff;stop-opacity:1;"
         offset="0"
         id="stop3227" />
      <stop
         style="stop-color:#aeaeae;stop-opacity:1;"
         offset="1"
         id="stop3229" />
    </linearGradient>
    <linearGradient
       id="linearGradient3207">
      <stop
         style="stop-color:#ffffff;stop-opacity:1;"
         offset="0"
         id="stop3209" />
      <stop
         style="stop-color:#252525;stop-opacity:0;"
         offset="1"
         id="stop3211" />
    </linearGradient>
    <linearGradient
       id="linearGradient7417">
      <stop
         id="stop7419"
         offset="0.0000000"
         style="stop-color:#ff5900;stop-opacity:1.0000000;" />
      <stop
         id="stop7421"
         offset="1.0000000"
         style="stop-color:#ffff00;stop-opacity:1.0000000;" />
    </linearGradient>
    <linearGradient
       id="linearGradient8197">
      <stop
         id="stop8199"
         offset="0.0000000"
         style="stop-color:#ffffff;stop-opacity:1.0000000;" />
      <stop
         id="stop8201"
         offset="1.0000000"
         style="stop-color:#ffffff;stop-opacity:0.0000000;" />
    </linearGradient>
    <filter
       id="f">
      <feGaussianBlur
         stdDeviation="1.0394514"
         id="feGaussianBlur1137" />
    </filter>
    <filter
       id="g">
      <feGaussianBlur
         stdDeviation=".50063244"
         id="feGaussianBlur1140" />
    </filter>
    <filter
       id="filter1824">
      <feGaussianBlur
         stdDeviation="1.0394514"
         id="feGaussianBlur1822" />
    </filter>
    <radialGradient
       id="e"
       cx="102"
       cy="112.3047"
       gradientUnits="userSpaceOnUse"
       r="139.5585">
      <stop
         offset="0"
         stop-color="#00537d"
         id="stop1118" />
      <stop
         offset=".0151"
         stop-color="#186389"
         id="stop1120" />
      <stop
         offset=".0558"
         stop-color="#558ca8"
         id="stop1122" />
      <stop
         offset=".0964"
         stop-color="#89afc3"
         id="stop1124" />
      <stop
         offset=".1357"
         stop-color="#b3ccd8"
         id="stop1126" />
      <stop
         offset=".1737"
         stop-color="#d4e2e9"
         id="stop1128" />
      <stop
         offset=".2099"
         stop-color="#ecf2f5"
         id="stop1130" />
      <stop
         offset=".2435"
         stop-color="#fafcfd"
         id="stop1132" />
      <stop
         offset=".2722"
         stop-color="#fff"
         id="stop1134" />
    </radialGradient>
    <radialGradient
       id="d"
       cx="102"
       cy="112.3047"
       gradientTransform="matrix(0.9787234,0,0,0.9818182,1.361705,1.163636)"
       gradientUnits="userSpaceOnUse"
       r="139.55859">
      <stop
         offset="0"
         stop-color="#535557"
         id="stop1101" />
      <stop
         offset=".11366145"
         stop-color="#898a8c"
         id="stop1103" />
      <stop
         offset=".20296688"
         stop-color="#ececec"
         id="stop1105" />
      <stop
         offset=".2363"
         stop-color="#fafafa"
         id="stop1107" />
      <stop
         offset=".2722"
         stop-color="#fff"
         id="stop1109" />
      <stop
         offset=".5313"
         stop-color="#fafafa"
         id="stop1111" />
      <stop
         offset=".8449"
         stop-color="#ebecec"
         id="stop1113" />
      <stop
         offset="1"
         stop-color="#e1e2e3"
         id="stop1115" />
    </radialGradient>
    <linearGradient
       id="a"
       gradientUnits="userSpaceOnUse"
       x1="88.591797"
       x2="71.262016"
       y1="96.592697"
       y2="79.262917">
      <stop
         offset="0"
         stop-color="#fff"
         id="stop1072" />
      <stop
         offset="1"
         stop-color="#555753"
         id="stop1074" />
    </linearGradient>
    <filter
       id="h">
      <feGaussianBlur
         stdDeviation=".40750996"
         id="feGaussianBlur1143" />
    </filter>
    <filter
       id="j">
      <feGaussianBlur
         stdDeviation=".90565481"
         id="feGaussianBlur1149" />
    </filter>
    <linearGradient
       id="b"
       gradientUnits="userSpaceOnUse"
       x1="85.219681"
       x2="61.336319"
       y1="93.219681"
       y2="69.336319">
      <stop
         offset="0"
         id="stop1077" />
      <stop
         offset="1"
         stop-color="#393b38"
         id="stop1079" />
    </linearGradient>
    <filter
       id="i">
      <feGaussianBlur
         stdDeviation=".4901192"
         id="feGaussianBlur1146" />
    </filter>
    <linearGradient
       id="c"
       gradientUnits="userSpaceOnUse"
       x1="96"
       x2="88.000198"
       y1="104"
       y2="96.000198">
      <stop
         offset="0"
         stop-color="#888a85"
         id="stop1082" />
      <stop
         offset=".0072"
         stop-color="#8c8e89"
         id="stop1084" />
      <stop
         offset=".0673"
         stop-color="#abaca9"
         id="stop1086" />
      <stop
         offset=".1347"
         stop-color="#c5c6c4"
         id="stop1088" />
      <stop
         offset=".2115"
         stop-color="#dbdbda"
         id="stop1090" />
      <stop
         offset=".3012"
         stop-color="#ebebeb"
         id="stop1092" />
      <stop
         offset=".4122"
         stop-color="#f7f7f6"
         id="stop1094" />
      <stop
         offset=".5679"
         stop-color="#fdfdfd"
         id="stop1096" />
      <stop
         offset="1"
         stop-color="#fff"
         id="stop1098" />
    </linearGradient>
  </defs>
  <sodipodi:namedview
     id="base"
     pagecolor="#ffffff"
     bordercolor="#666666"
     borderopacity="1.0"
     inkscape:pageopacity="0.0"
     inkscape:pageshadow="2"
     inkscape:zoom="4.0041194"
     inkscape:cx="40.365573"
     inkscape:cy="64.696013"
     inkscape:current-layer="layer1"
     showgrid="true"
     inkscape:document-units="px"
     inkscape:grid-bbox="true"
     guidetolerance="0.1px"
     showguides="false"
     inkscape:guide-bbox="true"
     inkscape:window-width="1366"
     inkscape:window-height="706"
     inkscape:window-x="0"
     inkscape:window-y="0"
     inkscape:window-maximized="1">
    <sodipodi:guide
       orientation="horizontal"
       position="32.487481"
       id="guide2204"
       inkscape:locked="false" />
    <inkscape:grid
       type="xygrid"
       id="grid996"
       spacingx="4"
       spacingy="4"
       empspacing="2" />
  </sodipodi:namedview>
  <metadata
     id="metadata1312">
    <rdf:RDF>
      <cc:Work
         rdf:about="">
        <dc:format>image/svg+xml</dc:format>
        <dc:type
           rdf:resource="http://purl.org/dc/dcmitype/StillImage" />
        <cc:license
           rdf:resource="http://creativecommons.org/licenses/GPL/2.0/" />
        <dc:contributor>
          <cc:Agent>
            <dc:title>Oxygen team</dc:title>
          </cc:Agent>
        </dc:contributor>
        <dc:title />
      </cc:Work>
      <cc:License
         rdf:about="http://creativecommons.org/licenses/LGPL/2.1/">
        <cc:permits
           rdf:resource="http://web.resource.org/cc/Reproduction" />
        <cc:permits
           rdf:resource="http://web.resource.org/cc/Distribution" />
        <cc:requires
           rdf:resource="http://web.resource.org/cc/Notice" />
        <cc:permits
           rdf:resource="http://web.resource.org/cc/DerivativeWorks" />
        <cc:requires
           rdf:resource="http://web.resource.org/cc/ShareAlike" />
        <cc:requires
           rdf:resource="http://web.resource.org/cc/SourceCode" />
      </cc:License>
    </rdf:RDF>
  </metadata>
  <g
     id="layer1"
     inkscape:label="Layer 1"
     inkscape:groupmode="layer">
    <g
       id="g2118">
      <g
         transform="translate(1.7364313e-8,-4.7375468e-6)"
         id="g1795">
        <path
           style="opacity:0.30684904;filter:url(#f)"
           inkscape:connector-curvature="0"
           d="m 23,9 0.04082,112 H 84.172 c 0.53,0 1.039,-0.211 1.414,-0.586 L 118.414,87.586 C 118.789,87.211 119,86.702 119,86.172 V 9 Z"
           transform="matrix(1.0416667,0,0,1.0357143,-9.958333,-3.321534)"
           id="path1152" />
        <path
           style="opacity:0.89589;filter:url(#g)"
           inkscape:connector-curvature="0"
           d="M 24.919999,10.931136 V 119.06907 l 58.676001,-1e-4 c 0.53,0 1.039,-0.211 1.414,-0.586 l 31.484,-31.765936 c 0.375,-0.375 0.586,-0.884 0.586,-1.414 V 10.931136 Z"
           transform="matrix(1.0416667,0,0,1.0357143,-9.958333,-3.321534)"
           id="path1154" />
        <path
           style="opacity:0.30684904;filter:url(#f)"
           inkscape:connector-curvature="0"
           d="M 23,9.9655172 23.040816,121 H 84.172 c 0.53,0 1.039,-0.211 1.414,-0.586 L 118.414,87.586 C 118.789,87.211 119,86.702 119,86.172 V 9.9655172 Z"
           transform="matrix(1.0416667,0,0,1.0357143,-9.958333,-3.321534)"
           id="path1156" />
        <path
           style="fill:url(#e)"
           inkscape:connector-curvature="0"
           d="m 16.000002,8 v 112 h 61.172 c 0.53,0 1.039,-0.211 1.414,-0.586 L 111.414,86.586 C 111.789,86.211 112,85.702 112,85.172 V 8 Z"
           id="path1158" />
        <path
           style="fill:url(#d)"
           inkscape:connector-curvature="0"
           d="m 19.678725,10.7 c -0.539276,0 -0.978723,0.440836 -0.978723,0.981818 l -0.7,105.336362 c 0,0.54197 0.439447,0.98182 0.978723,0.98182 h 57.913022 c 0.257404,0 0.509915,-0.10407 0.691957,-0.28767 L 109.71323,85.4812 C 109.89626,85.2976 110,85.045273 110,84.787055 V 10.981818 C 110,10.440836 109.56153,10 109.02128,10 Z"
           id="path1160" />
      </g>
      <g
         transform="translate(0,4)"
         id="g2025">
        <rect
           style="opacity:1;fill:#a2a2a2;fill-opacity:1;stroke:none;stroke-width:5.29481316;stroke-linecap:round;stroke-linejoin:bevel;stroke-miterlimit:4;stroke-dasharray:none;stroke-dashoffset:0;stroke-opacity:1"
           id="rect2970"
           width="64"
           height="4"
           x="-104"
           y="24"
           rx="0"
           ry="0"
           transform="scale(-1,1)" />
        <rect
           transform="scale(-1,1)"
           ry="0"
           rx="0"
           y="36"
           x="-88"
           height="4"
           width="47.999996"
           id="rect3114"
           style="opacity:1;fill:#a2a2a2;fill-opacity:1;stroke:none;stroke-width:4.58544302;stroke-linecap:round;stroke-linejoin:bevel;stroke-miterlimit:4;stroke-dasharray:none;stroke-dashoffset:0;stroke-opacity:1" />
        <rect
           style="opacity:1;fill:#a2a2a2;fill-opacity:1;stroke:none;stroke-width:6.00000048;stroke-linecap:square;stroke-linejoin:round;stroke-miterlimit:4;stroke-dasharray:none;stroke-dashoffset:0;stroke-opacity:1"
           id="rect2320"
           width="8"
           height="8"
           x="24"
           y="24" />
      </g>
      <g
         transform="translate(0,-24)"
         id="g2015">
        <rect
           style="opacity:1;fill:#0066ff;fill-opacity:1;stroke:none;stroke-width:5.29481316;stroke-linecap:round;stroke-linejoin:bevel;stroke-miterlimit:4;stroke-dasharray:none;stroke-dashoffset:0;stroke-opacity:1"
           id="rect3123"
           width="64"
           height="4"
           x="-104"
           y="80"
           rx="0"
           ry="0"
           transform="scale(-1,1)" />
        <rect
           transform="scale(-1,1)"
           ry="0"
           rx="0"
           y="92"
           x="-88"
           height="4"
           width="47.999996"
           id="rect3125"
           style="opacity:1;fill:#0066ff;fill-opacity:1;stroke:none;stroke-width:4.58544302;stroke-linecap:round;stroke-linejoin:bevel;stroke-miterlimit:4;stroke-dasharray:none;stroke-dashoffset:0;stroke-opacity:1" />
        <rect
           style="opacity:1;fill:#0066ff;fill-opacity:1;stroke:none;stroke-width:6.00000048;stroke-linecap:square;stroke-linejoin:round;stroke-miterlimit:4;stroke-dasharray:none;stroke-dashoffset:0;stroke-opacity:1"
           id="rect3127"
           width="8"
           height="8"
           x="24"
           y="80" />
      </g>
      <g
         transform="translate(0,32)"
         id="g2020">
        <rect
           transform="scale(-1,1)"
           ry="0"
           rx="0"
           y="52"
           x="-104"
           height="4"
           width="64"
           id="rect3117"
           style="opacity:1;fill:#a2a2a2;fill-opacity:1;stroke:none;stroke-width:5.29481316;stroke-linecap:round;stroke-linejoin:bevel;stroke-miterlimit:4;stroke-dasharray:none;stroke-dashoffset:0;stroke-opacity:1" />
        <rect
           style="opacity:1;fill:#a2a2a2;fill-opacity:1;stroke:none;stroke-width:4.58544397;stroke-linecap:round;stroke-linejoin:bevel;stroke-miterlimit:4;stroke-dasharray:none;stroke-dashoffset:0;stroke-opacity:1"
           id="rect3119"
           width="48.000004"
           height="4"
           x="-88"
           y="64"
           rx="0"
           ry="0"
           transform="scale(-1,1)" />
        <rect
           y="52"
           x="24"
           height="8"
           width="8"
           id="rect3121"
           style="opacity:1;fill:#a2a2a2;fill-opacity:1;stroke:none;stroke-width:6.00000048;stroke-linecap:square;stroke-linejoin:round;stroke-miterlimit:4;stroke-dasharray:none;stroke-dashoffset:0;stroke-opacity:1" />
      </g>
      <g
         id="g1170"
         transform="translate(2.0173643e-6,-4.7375468e-6)">
        <path
           style="opacity:0.1;fill:url(#a);filter:url(#h)"
           inkscape:connector-curvature="0"
           id="path1162"
           d="M 111.414,86.586 C 111.664,86.336 85.035,85 80,85 c -1.654,0 -3,1.346 -3,3 0,5.035 1.336,31.664 1.586,31.414 z" />
        <path
           style="opacity:0.2;filter:url(#j)"
           inkscape:connector-curvature="0"
           id="path1164"
           d="M 111.414,86.586 C 111.789,86.211 89.444,86 80,86 c -1.103,0 -2,0.897 -2,2 0,9.444 0.211,31.789 0.586,31.414 z" />
        <path
           style="opacity:0.1;fill:url(#b);filter:url(#i)"
           inkscape:connector-curvature="0"
           id="path1166"
           d="M 111.414,86.586 C 111.653,86.347 89.807,87 80,87 c -0.553,0 -1,0.447 -1,1 0,9.807 -0.653,31.653 -0.414,31.414 z" />
        <path
           style="fill:url(#c)"
           inkscape:connector-curvature="0"
           id="path1168"
           d="m 78.586,119.414 c 0,0 11.914,-9.914 17.414,-15.414 5.5,-5.5 15.414,-17.414 15.414,-17.414 0,0 -21.164,1.414 -31.414,1.414 0,10.25 -1.414,31.414 -1.414,31.414 z" />
      </g>
    </g>
  </g>
</svg>
